godot/editor/icons/PackedInt32Array.svg

<svg height="12" viewBox="0 0 16 12" width="16" xmlns="http://www.w3.org/2000/svg"><path d="m0 0v12h4v-2h-2v-8h2v-2zm12 0v2h2v8h-2v2h4v-12z" fill="#e0e0e0"/><path d="m3 2v2h2v-2zm2 2v2h-2v4h4v-4a1 1 0 0 1 1 1v3h2v-3a3 3 0 0 0 -3-3zm5 3a3 3 0 0 0 3 3v-2a1 1 0 0 1 -1-1v-1h1v-2h-1v-2h-2z" fill="#5abbef"/><path d="m5 4v6h2v-4a1 1 0 0 1 1 1v3h2v-3a3 3 0 0 0 -3-3z" fill="#fff" fill-opacity=".39216"/></svg>

<svg height="12" viewBox="0 0 16 12" width="16" xmlns="http://www.w3.org/2000/svg"><path d="M0 0v12h4v-2H2V2h2V0zm12 0v2h2v8h-2v2h4V0z" fill="#e0e0e0"/><path d="M3 2v2h2V2zm2 2v2H3v4h4V6a1 1 0 0 1 1 1v3h2V7a3 3 0 0 0-3-3zm5 3a3 3 0 0 0 3 3V8a1 1 0 0 1-1-1V6h1V4h-1V2h-2z" fill="#5abbef"/><path d="M5 4v6h2V6a1 1 0 0 1 1 1v3h2V7a3 3 0 0 0-3-3z" fill="#fff" fill-opacity=".4"/></svg>
